resources/svg/computer-o.svg

<svg xmlns="http://www.w3.org/2000/svg" viewBox="0 0 15 15" fill="none"><path d="M9.5 14.5H13.5C14.0523 14.5 14.5 14.0523 14.5 13.5V1.5C14.5 0.947715 14.0523 0.5 13.5 0.5H9.5C8.94772 0.5 8.5 0.947716 8.5 1.5V13.5C8.5 14.0523 8.94772 14.5 9.5 14.5ZM9.5 14.5H4M6.5 11.5V14.5M8.5 5.5H14.5M10 11.5H13M1.5 3.5H8.5V11.5H1.5C0.947715 11.5 0.5 11.0523 0.5 10.5V4.5C0.5 3.94772 0.947715 3.5 1.5 3.5Z" stroke="black"/></svg>

<svg xmlns="http://www.w3.org/2000/svg" viewBox="0 0 15 15" fill="none"><path d="M9.5 14.5h4a1 1 0 001-1v-12a1 1 0 00-1-1h-4a1 1 0 00-1 1v12a1 1 0 001 1zm0 0H4m2.5-3v3m2-9h6m-4.5 6h3m-11.5-8h7v8h-7a1 1 0 01-1-1v-6a1 1 0 011-1z" stroke="currentColor"/></svg>
